src/assets/mh-icons/Legs_Rank_01.svg

<?xml version="1.0" encoding="UTF-8" standalone="no"?>
<svg
   width="100%"
   height="100%"
   viewBox="0 0 64 64"
   version="1.1"
   xml:space="preserve"
   style="fill-rule:evenodd;clip-rule:evenodd;stroke-linejoin:round;stroke-miterlimit:2;"
   id="svg19518"
   sodipodi:docname="Legs_Rank_01.svg"
   inkscape:version="1.2.2 (732a01da63, 2022-12-09)"
   xmlns:inkscape="http://www.inkscape.org/namespaces/inkscape"
   xmlns:sodipodi="http://sodipodi.sourceforge.net/DTD/sodipodi-0.dtd"
   xmlns="http://www.w3.org/2000/svg"
   xmlns:svg="http://www.w3.org/2000/svg"><defs
   id="defs19522">
        
    
            
            
            
        
                
            
                
            
                
            </defs><sodipodi:namedview
   id="namedview19520"
   pagecolor="#505050"
   bordercolor="#eeeeee"
   borderopacity="1"
   inkscape:showpageshadow="0"
   inkscape:pageopacity="0"
   inkscape:pagecheckerboard="0"
   inkscape:deskcolor="#505050"
   showgrid="false"
   inkscape:zoom="16.046875"
   inkscape:cx="32.062317"
   inkscape:cy="31.968841"
   inkscape:window-width="3440"
   inkscape:window-height="1377"
   inkscape:window-x="-8"
   inkscape:window-y="-8"
   inkscape:window-maximized="1"
   inkscape:current-layer="svg19518" />
    <path
   id="background"
   style="fill-opacity:0.76;fill:none;stroke:#000000;stroke-opacity:1;stroke-width:4;stroke-dasharray:none"
   d="M 29 8 C 28.448001 8 28 8.4480006 28 9 L 28 10 C 28 10.551999 28.448001 11 29 11 L 30 11 L 30 15 L 30 20 L 30 25 L 30 30 L 30 36 L 30 37 L 26 37 L 22 37 L 17 37 L 11 37 C 8.7920022 37 7 38.792002 7 41 L 7 43 L 7 45 L 7 47 L 7 49 L 7 51 C 7 53.207998 8.7920022 55 11 55 L 17 55 L 22 55 L 26 55 L 31 55 L 34 55 L 36 55 L 43 55 L 46 55 L 51 55 C 51.999999 55 56 50.999999 56 50 L 56 42 C 56 40.000002 51 37 51 37 L 48.044922 35.029297 L 48.044922 35 L 48 35 L 48 30 L 48 25 L 48 20 L 48 15 L 48 11 L 49 11 C 49.551999 11 50 10.551999 50 10 L 50 9 C 50 8.4480006 49.551999 8 49 8 L 29 8 z " />
<g
   transform="matrix(1,0,0,1,0,-256)"
   id="g20018">
        <g
   id="g20016"
   transform="matrix(1,0,0,1,0,-640)">
            <g
   id="g20006"
   transform="matrix(1,0,0,1,-256,0)">
                <path
   d="m 273,933 -7,1 -3,3 v 2 l 1,1 -1,1 v 2 l 1,1 -1,1 v 2 l 3,3 7,1 h 5 l 2,-1 2,1 h 5 l 1.5,-1 1.5,1 h 2 l 3.523,-1 3.477,1 h 3 l 6,-14 -1,-4 -3,-2 v -5 l -1,-2.5 1,-2.5 v -5 l -1,-2.5 1,-2.5 v -5 h -18 v 5 l 1,2.5 -1,2.5 v 5 l 1,2.5 -1,2.5 v 7 h -4 l -2,1 -2,-1 z"
   style="display:inline;fill:#1f1f1f;fill-opacity:1"
   id="base"
   inkscape:label="base" />
            </g>
            <g
   id="g20010"
   transform="matrix(1,0,0,1,-256,0)">
                <path
   d="M263,937C263,934.792 264.792,933 267,933L273,933L273,951L267,951C264.792,951 263,949.208 263,947L268,947C268.552,947 269,946.552 269,946C269,945.448 268.552,945 268,945L263,945L263,943L268,943C268.552,943 269,942.552 269,942C269,941.448 268.552,941 268,941L263,941L263,939L268,939C268.552,939 269,938.552 269,938C269,937.448 268.552,937 268,937L263,937ZM290,940C290,939.448 289.552,939 289,939L288,939C287.448,939 287,939.448 287,940L287,951L290,951L290,940ZM302,942C303,942 307,938 307,937L307,933C307,933 312,936 312,938L312,946C312,947 308,951 307,951L302,951C302,951 301,950.916 301,949.958L301,943C301,943 301,942 302,942Z"
   style="fill:rgb(136,136,136);"
   id="path20008" />
            </g>
            <g
   id="g20014"
   transform="matrix(1,0,0,1,-256,0)">
                <path
   d="M304.045,931L287,931C286,931 286,932 286,932L286,935.955C286,935.955 286,937 287,937L291,937C291,937 292,937 292,938L292,951L299,951L299,941L304.045,935.955L304.045,931ZM283,934C283,933.448 282.552,933 282,933L278,933C277.448,933 277,933.448 277,934L277,950C277,950.552 277.448,951 278,951L282,951C282.552,951 283,950.552 283,950L283,934ZM295.5,946C296.328,946 297,946.672 297,947.5C297,948.328 296.328,949 295.5,949C294.672,949 294,948.328 294,947.5C294,946.672 294.672,946 295.5,946ZM280,945.5C280.828,945.5 281.5,946.172 281.5,947C281.5,947.828 280.828,948.5 280,948.5C279.172,948.5 278.5,947.828 278.5,947C278.5,946.172 279.172,945.5 280,945.5ZM280,940.5C280.828,940.5 281.5,941.172 281.5,942C281.5,942.828 280.828,943.5 280,943.5C279.172,943.5 278.5,942.828 278.5,942C278.5,941.172 279.172,940.5 280,940.5ZM280,935.5C280.828,935.5 281.5,936.172 281.5,937C281.5,937.828 280.828,938.5 280,938.5C279.172,938.5 278.5,937.828 278.5,937C278.5,936.172 279.172,935.5 280,935.5ZM304,921C304,920.448 303.552,920 303,920L287,920C286.448,920 286,920.448 286,921L286,926C286,926.552 286.448,927 287,927L303,927C303.552,927 304,926.552 304,926L304,921ZM289.5,922C290.328,922 291,922.672 291,923.5C291,924.328 290.328,925 289.5,925C288.672,925 288,924.328 288,923.5C288,922.672 288.672,922 289.5,922ZM300.5,922C301.328,922 302,922.672 302,923.5C302,924.328 301.328,925 300.5,925C299.672,925 299,924.328 299,923.5C299,922.672 299.672,922 300.5,922ZM295,922C296.656,922 298,922.672 298,923.5C298,924.328 296.656,925 295,925C293.344,925 292,924.328 292,923.5C292,922.672 293.344,922 295,922ZM304,911C304,910.448 303.552,910 303,910L287,910C286.448,910 286,910.448 286,911L286,916C286,916.552 286.448,917 287,917L303,917C303.552,917 304,916.552 304,916L304,911ZM295,912C296.656,912 298,912.672 298,913.5C298,914.328 296.656,915 295,915C293.344,915 292,914.328 292,913.5C292,912.672 293.344,912 295,912ZM289.5,912C290.328,912 291,912.672 291,913.5C291,914.328 290.328,915 289.5,915C288.672,915 288,914.328 288,913.5C288,912.672 288.672,912 289.5,912ZM300.5,912C301.328,912 302,912.672 302,913.5C302,914.328 301.328,915 300.5,915C299.672,915 299,914.328 299,913.5C299,912.672 299.672,912 300.5,912ZM306,905C306,904.448 305.552,904 305,904L285,904C284.448,904 284,904.448 284,905L284,906C284,906.552 284.448,907 285,907L305,907C305.552,907 306,906.552 306,906L306,905Z"
   style="fill:rgb(190,190,190);"
   id="path20012" />
            </g>
        </g>
    </g></svg>

<?xml version="1.0" encoding="UTF-8" standalone="no"?>
<svg
   width="100%"
   height="100%"
   viewBox="0 0 64 64"
   version="1.1"
   xml:space="preserve"
   style="fill-rule:evenodd;clip-rule:evenodd;stroke-linejoin:round;stroke-miterlimit:2;"
   id="svg19518"
   sodipodi:docname="Legs_Rank_01.svg"
   inkscape:version="1.2.2 (732a01da63, 2022-12-09)"
   xmlns:inkscape="http://www.inkscape.org/namespaces/inkscape"
   xmlns:sodipodi="http://sodipodi.sourceforge.net/DTD/sodipodi-0.dtd"
   xmlns="http://www.w3.org/2000/svg"
   xmlns:svg="http://www.w3.org/2000/svg"><defs
   id="defs19522">
        
    
            
            
            
        
                
            
                
            
                
            </defs><sodipodi:namedview
   id="namedview19520"
   pagecolor="#505050"
   bordercolor="#eeeeee"
   borderopacity="1"
   inkscape:showpageshadow="0"
   inkscape:pageopacity="0"
   inkscape:pagecheckerboard="0"
   inkscape:deskcolor="#505050"
   showgrid="false"
   inkscape:zoom="16.046875"
   inkscape:cx="32"
   inkscape:cy="31.968841"
   inkscape:window-width="3440"
   inkscape:window-height="1377"
   inkscape:window-x="-8"
   inkscape:window-y="-8"
   inkscape:window-maximized="1"
   inkscape:current-layer="svg19518" />
    <path
   id="path19506"
   style="fill-opacity:0.76;fill:none;stroke:#000000;stroke-opacity:1;stroke-width:4;stroke-dasharray:none"
   d="M 29 8 C 28.448001 8 28 8.4480006 28 9 L 28 10 C 28 10.551999 28.448001 11 29 11 L 30 11 L 30 15 L 30 20 L 30 25 L 30 30 L 30 36 L 30 37 L 26 37 L 22 37 L 17 37 L 11 37 C 8.7920022 37 7 38.792002 7 41 L 7 43 L 7 45 L 7 47 L 7 49 L 7 51 C 7 53.207998 8.7920022 55 11 55 L 17 55 L 22 55 L 26 55 L 31 55 L 34 55 L 36 55 L 43 55 L 46 55 L 51 55 C 51.999999 55 56 50.999999 56 50 L 56 42 C 56 40.000002 51 37 51 37 L 48.044922 35.029297 L 48.044922 35 L 48 35 L 48 30 L 48 25 L 48 20 L 48 15 L 48 11 L 49 11 C 49.551999 11 50 10.551999 50 10 L 50 9 C 50 8.4480006 49.551999 8 49 8 L 29 8 z " />
<g
   transform="matrix(1,0,0,1,0,-256)"
   id="g20018">
        <g
   id="g20016"
   transform="matrix(1,0,0,1,0,-640)">
            <g
   id="g20006"
   transform="matrix(1,0,0,1,-256,0)">
                <path
   d="M273,933L266,934L263,937L263,939L264,940L263,941L263,943L264,944L263,945L263,947L266,950L273,951L278,951L280,950L282,951L287,951L288.5,950L290,951L292,951L295.523,950L299,951L302,951L308,937L307,933L304,931L304,926L303,923.5L304,921L304,916L303,913.5L304,911L304,906L286,906L286,911L287,913.5L286,916L286,921L287,923.5L286,926L286,933L282,933L280,934L278,933L273,933Z"
   style="fill-opacity:1;fill:#1f1f1f"
   id="path20004" />
            </g>
            <g
   id="g20010"
   transform="matrix(1,0,0,1,-256,0)">
                <path
   d="M263,937C263,934.792 264.792,933 267,933L273,933L273,951L267,951C264.792,951 263,949.208 263,947L268,947C268.552,947 269,946.552 269,946C269,945.448 268.552,945 268,945L263,945L263,943L268,943C268.552,943 269,942.552 269,942C269,941.448 268.552,941 268,941L263,941L263,939L268,939C268.552,939 269,938.552 269,938C269,937.448 268.552,937 268,937L263,937ZM290,940C290,939.448 289.552,939 289,939L288,939C287.448,939 287,939.448 287,940L287,951L290,951L290,940ZM302,942C303,942 307,938 307,937L307,933C307,933 312,936 312,938L312,946C312,947 308,951 307,951L302,951C302,951 301,950.916 301,949.958L301,943C301,943 301,942 302,942Z"
   style="fill:rgb(136,136,136);"
   id="path20008" />
            </g>
            <g
   id="g20014"
   transform="matrix(1,0,0,1,-256,0)">
                <path
   d="M304.045,931L287,931C286,931 286,932 286,932L286,935.955C286,935.955 286,937 287,937L291,937C291,937 292,937 292,938L292,951L299,951L299,941L304.045,935.955L304.045,931ZM283,934C283,933.448 282.552,933 282,933L278,933C277.448,933 277,933.448 277,934L277,950C277,950.552 277.448,951 278,951L282,951C282.552,951 283,950.552 283,950L283,934ZM295.5,946C296.328,946 297,946.672 297,947.5C297,948.328 296.328,949 295.5,949C294.672,949 294,948.328 294,947.5C294,946.672 294.672,946 295.5,946ZM280,945.5C280.828,945.5 281.5,946.172 281.5,947C281.5,947.828 280.828,948.5 280,948.5C279.172,948.5 278.5,947.828 278.5,947C278.5,946.172 279.172,945.5 280,945.5ZM280,940.5C280.828,940.5 281.5,941.172 281.5,942C281.5,942.828 280.828,943.5 280,943.5C279.172,943.5 278.5,942.828 278.5,942C278.5,941.172 279.172,940.5 280,940.5ZM280,935.5C280.828,935.5 281.5,936.172 281.5,937C281.5,937.828 280.828,938.5 280,938.5C279.172,938.5 278.5,937.828 278.5,937C278.5,936.172 279.172,935.5 280,935.5ZM304,921C304,920.448 303.552,920 303,920L287,920C286.448,920 286,920.448 286,921L286,926C286,926.552 286.448,927 287,927L303,927C303.552,927 304,926.552 304,926L304,921ZM289.5,922C290.328,922 291,922.672 291,923.5C291,924.328 290.328,925 289.5,925C288.672,925 288,924.328 288,923.5C288,922.672 288.672,922 289.5,922ZM300.5,922C301.328,922 302,922.672 302,923.5C302,924.328 301.328,925 300.5,925C299.672,925 299,924.328 299,923.5C299,922.672 299.672,922 300.5,922ZM295,922C296.656,922 298,922.672 298,923.5C298,924.328 296.656,925 295,925C293.344,925 292,924.328 292,923.5C292,922.672 293.344,922 295,922ZM304,911C304,910.448 303.552,910 303,910L287,910C286.448,910 286,910.448 286,911L286,916C286,916.552 286.448,917 287,917L303,917C303.552,917 304,916.552 304,916L304,911ZM295,912C296.656,912 298,912.672 298,913.5C298,914.328 296.656,915 295,915C293.344,915 292,914.328 292,913.5C292,912.672 293.344,912 295,912ZM289.5,912C290.328,912 291,912.672 291,913.5C291,914.328 290.328,915 289.5,915C288.672,915 288,914.328 288,913.5C288,912.672 288.672,912 289.5,912ZM300.5,912C301.328,912 302,912.672 302,913.5C302,914.328 301.328,915 300.5,915C299.672,915 299,914.328 299,913.5C299,912.672 299.672,912 300.5,912ZM306,905C306,904.448 305.552,904 305,904L285,904C284.448,904 284,904.448 284,905L284,906C284,906.552 284.448,907 285,907L305,907C305.552,907 306,906.552 306,906L306,905Z"
   style="fill:rgb(190,190,190);"
   id="path20012" />
            </g>
        </g>
    </g></svg>
